lib/brands/icons/google-calendar.svg

<svg xmlns="http://www.w3.org/2000/svg" fill="none" aria-hidden="true" viewBox="0 0 48 48"><g id="google-calendar-Icon"><g id="Group"><path id="Vector" fill="white" d="M33.4737 14.5262H14.5264V33.4736H33.4737V14.5262Z"/><path id="Vector_2" fill="#EA4335" d="M33.4734 41.9999L41.9997 33.4736L37.7366 32.7462L33.4734 33.4736L32.6953 37.3731L33.4734 41.9999Z"/><path id="Vector_3" fill="#188038" d="M6 33.4736V39.1578C6 40.7281 7.27184 41.9999 8.84211 41.9999H14.5263L15.4017 37.7367L14.5263 33.4736L9.88114 32.7462L6 33.4736Z"/><path id="Vector_4" fill="#1967D2" d="M41.9997 14.5263V8.84211C41.9997 7.27184 40.7279 6 39.1576 6H33.4734C32.9547 8.11442 32.6953 9.67047 32.6953 10.6681C32.6953 11.6658 32.9547 12.9519 33.4734 14.5263C35.3591 15.0663 36.7802 15.3363 37.7366 15.3363C38.693 15.3363 40.114 15.0663 41.9997 14.5263Z"/><path id="Vector_5" fill="#FBBC04" d="M41.9999 14.5262H33.4736V33.4736H41.9999V14.5262Z"/><path id="Vector_6" fill="#34A853" d="M33.4737 33.4738H14.5264V42.0001H33.4737V33.4738Z"/><path id="Vector_7" fill="#4285F4" d="M33.4737 6H8.84211C7.27184 6 6 7.27184 6 8.84211V33.4737H14.5263V14.5263H33.4737V6Z"/><path id="Vector_8" fill="#4285F4" d="M18.4133 29.2246C17.7052 28.7462 17.2149 28.0475 16.9473 27.1239L18.591 26.4465C18.7402 27.0149 19.0007 27.4554 19.3725 27.7681C19.742 28.0807 20.192 28.2346 20.7178 28.2346C21.2554 28.2346 21.7173 28.0712 22.1033 27.7444C22.4894 27.4175 22.6836 27.0007 22.6836 26.4962C22.6836 25.9799 22.4799 25.5583 22.0725 25.2315C21.6652 24.9046 21.1536 24.7412 20.5425 24.7412H19.5928V23.1141H20.4454C20.9712 23.1141 21.4141 22.972 21.7741 22.6878C22.1341 22.4036 22.3141 22.0152 22.3141 21.5202C22.3141 21.0796 22.1531 20.7291 21.831 20.4662C21.5088 20.2033 21.1015 20.0707 20.6065 20.0707C20.1233 20.0707 19.7396 20.1986 19.4554 20.4567C19.1714 20.7156 18.9579 21.0424 18.8349 21.4065L17.2078 20.7291C17.4233 20.1181 17.8188 19.5781 18.3991 19.1115C18.9794 18.6449 19.7207 18.4104 20.6207 18.4104C21.2862 18.4104 21.8854 18.5383 22.416 18.7965C22.9465 19.0546 23.3633 19.4123 23.6641 19.867C23.9649 20.3241 24.1141 20.8357 24.1141 21.4041C24.1141 21.9844 23.9744 22.4746 23.6949 22.8773C23.4154 23.2799 23.072 23.5878 22.6646 23.8033V23.9004C23.1906 24.1173 23.6476 24.4735 23.9862 24.9307C24.3296 25.3925 24.5025 25.9444 24.5025 26.5886C24.5025 27.2328 24.3391 27.8083 24.0123 28.3128C23.6854 28.8173 23.2331 29.2152 22.6599 29.5041C22.0844 29.7931 21.4378 29.9399 20.7202 29.9399C19.8888 29.9423 19.1215 29.7031 18.4133 29.2246ZM28.5099 21.0678L26.7052 22.3728L25.8028 21.0039L29.0404 18.6686H30.2815V29.6841H28.5099V21.0678Z"/></g></g></svg>

<svg xmlns="http://www.w3.org/2000/svg" fill="none" aria-hidden="true" viewBox="0 0 48 48"><path fill="#fff" d="M33.474 14.526H14.526v18.948h18.948V14.526Z"/><path fill="#EA4335" d="M33.474 42 42 33.474l-4.263-.728-4.263.728-.778 3.9.778 4.626Z"/><path fill="#188038" d="M6 33.474v5.684A2.841 2.841 0 0 0 8.842 42h5.684l.876-4.263-.876-4.263-4.645-.728L6 33.474Z"/><path fill="#1967D2" d="M42 14.526V8.842A2.841 2.841 0 0 0 39.158 6h-5.684c-.52 2.114-.778 3.67-.778 4.668 0 .998.259 2.284.778 3.858 1.885.54 3.306.81 4.263.81.956 0 2.377-.27 4.263-.81Z"/><path fill="#FBBC04" d="M42 14.526h-8.526v18.948H42V14.526Z"/><path fill="#34A853" d="M33.474 33.474H14.526V42h18.948v-8.526Z"/><path fill="#4285F4" d="M33.474 6H8.842A2.841 2.841 0 0 0 6 8.842v24.632h8.526V14.526h18.948V6Z"/><path fill="#4285F4" d="M18.413 29.225c-.708-.479-1.199-1.178-1.466-2.101l1.643-.677c.15.568.41 1.008.782 1.321.37.313.82.467 1.345.467.538 0 1-.164 1.386-.49.386-.328.58-.744.58-1.249 0-.516-.204-.938-.611-1.264-.407-.327-.919-.49-1.53-.49h-.95v-1.628h.853c.526 0 .969-.142 1.329-.426.36-.284.54-.673.54-1.168 0-.44-.161-.79-.483-1.054-.323-.263-.73-.395-1.225-.395-.483 0-.867.128-1.151.386a2.267 2.267 0 0 0-.62.95l-1.628-.678c.216-.61.611-1.15 1.192-1.617.58-.467 1.321-.702 2.221-.702.666 0 1.265.128 1.796.387.53.258.947.615 1.248 1.07.3.457.45.969.45 1.537 0 .58-.14 1.07-.42 1.473-.28.403-.622.71-1.03.926v.097c.526.217.983.574 1.322 1.03.343.462.516 1.014.516 1.659a3.1 3.1 0 0 1-.49 1.724c-.327.504-.78.902-1.353 1.191-.575.29-1.222.436-1.94.436a4.015 4.015 0 0 1-2.306-.715Zm10.096-8.157-1.804 1.305-.903-1.37 3.238-2.334h1.241v11.015h-1.772v-8.616Z"/></svg>
